X: 10691
M: 6/8
L: 1/8
K: G
d |\
e2d c2B | d2B A>Bc | B2d e2d | B2c def |\
g2d c2B | d2B A>Bc | B2d e2d | G3- G2 H|]
d |\
dcB BAG | F2G e2d | ^c2d =c2d | B3 B2d |\
dcB BAG | F2G e2d | ^c2d =c2A | G3- "^D.C."G2 |]
c2d e2f | g3 a2g | (^f2g) (=f2g) | (e3 c2)G |\
c2d e2f | g3 a2g | (^f2g) (=f2d) | c3- "^D.C."c2 |]


